// NOTE: Shader automatically converted from Godot Engine 4.3.stable's StandardMaterial3D.

shader_type spatial;
render_mode blend_mix, depth_draw_opaque, cull_disabled, unshaded;

#define ALPHA_PASS

#include "preview.gdshaderinc"
